!!!COM: de Févin, Antoine
!!!CDT: ~1470//-~1511//
!!!OPR: Missa Ave Maria
!!!ONM: 5
!!!OTL: Agnus Dei
!!!AGN: Mass; Agnus Dei
!!!SCT: Fva1001e
!!!SCA: Fva1001e
!!!voices-OPR: 4
!!!voices: 4
**kern	**text	**kern	**text	**kern	**text	**kern	**text
*staff4	*staff4	*staff3	*staff3	*staff2	*staff2	*staff1	*staff1
*Ivox	*	*Ivox	*	*Ivox	*	*Ivox	*
*I"Bassus	*	*I"Tenor	*	*I"Altus	*	*I"Superius	*
*I'B	*	*I'T	*	*I'A	*	*I'S	*
*>[A,B]	*>[A,B]	*>[A,B]	*>[A,B]	*>[A,B]	*>[A,B]	*>[A,B]	*>[A,B]
*>A	*>A	*>A	*>A	*>A	*>A	*>A	*>A
*clefF4	*	*clefGv2	*	*clefGv2	*	*clefG2	*
*k[]	*	*k[]	*	*k[]	*	*k[]	*
*M2/1	*	*M2/1	*	*M2/1	*	*M2/1	*
*met(C|)	*	*met(C|)	*	*met(C|)	*	*met(C|)	*
!!section: Agnus Dei I
!!!OMD: Agnus Dei I
=1-	=1-	=1-	=1-	=1-	=1-	=1-	=1-
0r	.	0r	.	0r	.	1g	A-
.	.	.	.	.	.	[1cc	-gnus
=2	=2	=2	=2	=2	=2	=2	=2
0r	.	0r	.	0r	.	1cc]	.
.	.	.	.	.	.	1cc	De-
=3	=3	=3	=3	=3	=3	=3	=3
0r	.	0r	.	1G	A-	1dd	.
.	.	.	.	[1c	-gnus	1ee	.
=4	=4	=4	=4	=4	=4	=4	=4
0r	.	0r	.	1c]	.	0cc	-i,
.	.	.	.	1c	De-	.	.
=5	=5	=5	=5	=5	=5	=5	=5
1r	.	1G	A-	1d	.	1r	.
1C	A-	[1c	-gnus	2.e\	.	1cc	qui
.	.	.	.	4d\	.	.	.
=6	=6	=6	=6	=6	=6	=6	=6
0F	-gnus	1c]	.	2.c\	.	1.cc	tol-
.	.	.	.	4B\	.	.	.
.	.	1c	De-	[1A	.	.	.
.	.	.	.	.	.	2b\	.
=7	=7	=7	=7	=7	=7	=7	=7
1F	De-	1d	.	1A]	.	1a	.
1G	.	1e	.	1B	-i,	1g	.
=8	=8	=8	=8	=8	=8	=8	=8
1.A	.	0c	-i,	1r	.	0cc	.
.	.	.	.	1e	[qui	.	.
2G\	.	.	.	.	.	.	.
=9	=9	=9	=9	=9	=9	=9	=9
2F\	.	1r	.	1.f	tol-	2dd\	.
2E\	.	.	.	.	.	2ee\	.
1D	.	1B	qui	.	.	1ff	.
.	.	.	.	4e\	.	.	.
.	.	.	.	4d\	.	.	.
=10	=10	=10	=10	=10	=10	=10	=10
0C	.	1.c	tol-	0g	-lis]	1ee	-lis
.	.	.	.	.	.	2cc\	pec-
.	.	4B\	.	.	.	[2gg\	-ca-
.	.	4A/	.	.	.	.	.
=11	=11	=11	=11	=11	=11	=11	=11
1G	.	1B	-lis	2r	.	4gg\]	.
.	.	.	.	.	.	4ff\	.
.	.	.	.	1g	[pec-	1ee	.
1A	.	1c	pec-	.	.	.	.
.	.	.	.	2f\	-ca-	4dd\	.
.	.	.	.	.	.	4cc\	.
=12	=12	=12	=12	=12	=12	=12	=12
1.G	.	1d	-ca-	2.g\	-ta	2.b\	-ta
.	.	.	.	4f\	.	4a/	.
.	.	1G	.	2.d\	.	4b\	.
.	.	.	.	.	.	4cc\	.
4F\	.	.	.	.	.	[2dd\	.
4E\	.	.	.	4e\	.	.	.
=13	=13	=13	=13	=13	=13	=13	=13
2D\	.	0A	-ta	2f\	.	2dd\]	.
2E\	.	.	.	1e	mun-	4cc\	.
.	.	.	.	.	.	4b\	.
1F	.	.	.	.	.	1a	mun-
.	.	.	.	2d\	.	.	.
=14	=14	=14	=14	=14	=14	=14	=14
1.E	.	2.B\	mun-	[0e	-di:]	[0g	-di:
.	.	4A/	.	.	.	.	.
.	.	2B\	.	.	.	.	.
4D\	.	[2c\	.	.	.	.	.
4C/	.	.	.	.	.	.	.
=15	=15	=15	=15	=15	=15	=15	=15
0C	-i,	2c\]	.	0e]	.	0g_	.
.	.	4B\	.	.	.	.	.
.	.	4A/	.	.	.	.	.
.	.	1G	-di:	.	.	.	.
=16	=16	=16	=16	=16	=16	=16	=16
0r	.	1r	.	0r	.	0g]	.
.	.	1G	[mi-	.	.	.	.
=17	=17	=17	=17	=17	=17	=17	=17
1C	qui	1.c	-se-	0r	.	0r	.
[1F	tol-	.	.	.	.	.	.
.	.	2B\	-re-	.	.	.	.
=18	=18	=18	=18	=18	=18	=18	=18
2F\]	.	1c	-re	0r	.	0r	.
2E\	.	.	.	.	.	.	.
1F	.	[1d	no-	.	.	.	.
=19	=19	=19	=19	=19	=19	=19	=19
1.G	.	2d\]	.	0r	.	0r	.
.	.	1B	.	.	.	.	.
[2E\	.	4A/	.	.	.	.	.
.	.	4G/	.	.	.	.	.
=20	=20	=20	=20	=20	=20	=20	=20
2E\]	.	0G	-bis,]	0r	.	0r	.
4D\	.	.	.	.	.	.	.
4C/	.	.	.	.	.	.	.
2.C/	-lis	.	.	.	.	.	.
4D\	.	.	.	.	.	.	.
=21	=21	=21	=21	=21	=21	=21	=21
2E\	.	2r	.	0r	.	0r	.
1F	.	2c\	mi-	.	.	.	.
.	.	1d	-se-	.	.	.	.
2G\	.	.	.	.	.	.	.
=22	=22	=22	=22	=22	=22	=22	=22
2E\	.	1.e	-re-	0r	.	0r	.
2.A\	pec-	.	.	.	.	.	.
4G\	.	.	.	.	.	.	.
4F\	.	4d\	.	.	.	.	.
4E\	.	4c\	.	.	.	.	.
=23	=23	=23	=23	=23	=23	=23	=23
2D\	.	1f	-re	0r	.	0r	.
2.A\	-ca-	.	.	.	.	.	.
.	.	2e\	no-	.	.	.	.
4G\	.	.	.	.	.	.	.
[2A\	-ta	[2f\	.	.	.	.	.
=24	=24	=24	=24	=24	=24	=24	=24
4A\]	.	4f\]	.	0r	.	0r	.
4G\	.	4e\	.	.	.	.	.
4F\	.	2.e\	.	.	.	.	.
4E\	.	.	.	.	.	.	.
1F	mun-	.	.	.	.	.	.
.	.	4c\	.	.	.	.	.
.	.	4d\	.	.	.	.	.
.	.	4B\	.	.	.	.	.
=25	=25	=25	=25	=25	=25	=25	=25
0E	-di:	0e	-bis,]	0r	.	1r	.
.	.	.	.	.	.	1g	mi-
=26	=26	=26	=26	=26	=26	=26	=26
0r	.	0r	.	1c	[mi-	1.cc	-se-
.	.	.	.	[1f	-se-	.	.
.	.	.	.	.	.	2b\	-re
=27	=27	=27	=27	=27	=27	=27	=27
0r	.	0r	.	2f\]	.	1cc	re
.	.	.	.	2e\	-re-	.	.
.	.	.	.	1f	-re	[1dd	no-
=28	=28	=28	=28	=28	=28	=28	=28
0r	.	0r	.	1.g	no-	2dd\]	.
.	.	.	.	.	.	1b	.
.	.	.	.	[2e\	.	4a/	.
.	.	.	.	.	.	4g/	.
=29	=29	=29	=29	=29	=29	=29	=29
0r	.	0r	.	2e\]	.	0g	-bis,
.	.	.	.	4d\	.	.	.
.	.	.	.	4c\	.	.	.
.	.	.	.	2.c\	.	.	.
.	.	.	.	4d\	.	.	.
=30	=30	=30	=30	=30	=30	=30	=30
0r	.	0r	.	2e\	.	2r	.
.	.	.	.	1f	.	2cc\	[mi-
.	.	.	.	.	.	1dd	-se-
.	.	.	.	2g\	.	.	.
=31	=31	=31	=31	=31	=31	=31	=31
0r	.	0r	.	2e\	.	1.ee	-re-
.	.	.	.	2.a\	.	.	.
.	.	.	.	4g\	.	.	.
.	.	.	.	4f\	.	4dd\	.
.	.	.	.	4e\	.	4cc\	.
=32	=32	=32	=32	=32	=32	=32	=32
0r	.	0r	.	2d\	.	1ff	.
.	.	.	.	2.a\	.	.	.
.	.	.	.	.	.	2ee\	-re
.	.	.	.	4g\	.	.	.
.	.	.	.	[2a\	.	[2ff\	no-
=33	=33	=33	=33	=33	=33	=33	=33
2r	.	0r	.	4a\]	.	4ff\]	.
.	.	.	.	4g\	.	4ee\	.
2G\	mi-	.	.	4f\	.	1ee	.
.	.	.	.	4e\	.	.	.
2A\	-se-	.	.	1f	.	.	.
2B\	-re-	.	.	.	.	2dd\	.
=34	=34	=34	=34	=34	=34	=34	=34
1c	-re	2r	.	1e	.	1ee	.
.	.	2c\	mi-	.	.	.	.
2B\	no-	2d\	-se-	[1g	.	2dd\	.
[2c\	.	2c\	-re-	.	.	[2ee\	.
=35	=35	=35	=35	=35	=35	=35	=35
2c\]	.	1.e	-re	0g]	.	2ee\]	.
4B\	.	.	.	.	.	4dd\	.
4A\	.	.	.	.	.	4cc\	.
1G	.	.	.	.	.	1b	.
.	.	[2d\	no-	.	.	.	.
=36	=36	=36	=36	=36	=36	=36	=36
1B-	.	2d\]	.	[0f	.	1dd	.
.	.	2B-i\	.	.	.	.	.
2A\	.	2c\	.	.	.	2cc\	.
[2B-i\	.	2B-i\	.	.	.	[2dd\	.
=37	=37	=37	=37	=37	=37	=37	=37
2B-i\]	.	1.d	.	0f]	.	2dd\]	.
4A\	.	.	.	.	.	4cc\	.
4G\	.	.	.	.	.	4b\	.
1F	.	.	.	.	.	1a	.
.	.	[2c\	.	.	.	.	.
=38	=38	=38	=38	=38	=38	=38	=38
1A	.	2c\]	.	0e	.	1cc	.
.	.	2A/	.	.	.	.	.
2G\	.	2B\	.	.	.	2b\	.
[2A\	.	2A/	.	.	.	[2cc\	.
=39	=39	=39	=39	=39	=39	=39	=39
2A\]	.	2.c\	.	2.e\	.	2cc\]	.
4G\	.	.	.	.	.	4b\	.
4F\	.	4d\	.	4f\	.	4a/	.
2E\	.	2e\	.	2g\	.	2g/	.
2F\	.	2d\	.	2f\	.	[2a/	.
=40	=40	=40	=40	=40	=40	=40	=40
2G\	.	2B\	.	2d\	.	4a/]	.
.	.	.	.	.	.	4g/	.
2C/	.	2c\	.	2e\	.	1g	.
1D	-bis,	1A	.	1d	.	.	.
.	.	.	.	.	.	2f#i/	.
=41	=41	=41	=41	=41	=41	=41	=41
2r	.	1G	-bis,	0B	-bis,]	0g	-bis,]
1G	[mi-	.	.	.	.	.	.
.	.	2r	.	.	.	.	.
2E\	-se-	2G/	[mi-	.	.	.	.
=42	=42	=42	=42	=42	=42	=42	=42
4F\	-re-	1A	-se-	0r	.	0r	.
4E\	.	.	.	.	.	.	.
4D\	.	.	.	.	.	.	.
4C/	.	.	.	.	.	.	.
1D	.	1B	-re-	.	.	.	.
=43	=43	=43	=43	=43	=43	=43	=43
0C	-re,]	0c	-re,]	2r	.	1r	.
.	.	.	.	1g	mi-	.	.
.	.	.	.	.	.	2r	.
.	.	.	.	2e\	-se-	2g/	mi-
=44	=44	=44	=44	=44	=44	=44	=44
1r	.	0r	.	4f\	-re-	1a	-se-
.	.	.	.	4e\	.	.	.
.	.	.	.	4d\	.	.	.
.	.	.	.	4c\	.	.	.
2r	.	.	.	1d	-re	1b	-re-
2G\	mi-	.	.	.	.	.	.
=45	=45	=45	=45	=45	=45	=45	=45
1A	-se-	2r	.	2c\	no-	1cc	-re
.	.	2c\	mi-	2.f\	.	.	.
2F\	-re-	1d	-se-	.	.	2a/	no-
.	.	.	.	4e\	.	.	.
[2G\	-re	.	.	4d\	.	[2b\	.
.	.	.	.	4c\	.	.	.
=46	=46	=46	=46	=46	=46	=46	=46
2G\]	.	1e	-re-	2B\	.	2b\]	.
1A	no-	.	.	2A/	.	1cc	.
.	.	1f	-re	2c\	.	.	.
[2B\	.	.	.	2B\	.	[2dd\	.
=47	=47	=47	=47	=47	=47	=47	=47
2B\]	.	2d\	no-	1G	-bis,	2dd\]	.
2G\	.	1e	.	.	.	2b\	.
1A	.	.	.	1r	.	1cc	.
.	.	[2f\	.	.	.	.	.
=48	=48	=48	=48	=48	=48	=48	=48
2B\	.	2f\]	.	2r	.	1dd	.
2B\	.	2.g\	.	2G/	[no-	.	.
4c\	.	.	.	2.c\	.	2ee\	.
4B\	.	4e\	.	.	.	.	.
4A\	.	[2a\	.	.	.	[2ff\	.
4G\	.	.	.	4B\	.	.	.
=49	=49	=49	=49	=49	=49	=49	=49
2A\	.	4a\]	.	2c\	.	4ff\]	.
.	.	4g\	.	.	.	4ee\	.
1B	.	4f\	.	1d	.	4dd\	.
.	.	4e\	.	.	.	4cc\	.
.	.	2f\	.	.	.	4dd\	.
.	.	.	.	.	.	4b\	.
2G\	.	2g\	.	2B\	.	[2ee\	.
=50	=50	=50	=50	=50	=50	=50	=50
2.A\	.	2e\	.	1c	.	4ee\]	.
.	.	.	.	.	.	4dd\	.
.	.	2f\	.	.	.	1cc	.
4F\	.	.	.	.	.	.	.
1G	.	1d	.	1g	.	.	.
.	.	.	.	.	.	2b\	.
=51	=51	=51	=51	=51	=51	=51	=51
[0Cl	-bis.&	[0cl	-bis.&	0c	.	[0ccl	-bis.&
=52	=52	=52	=52	=52	=52	=52	=52
0C]	.	0c]	.	0gl	-bis.]	0cc]	.
!!LO:LB:i:g=z
=53||	=53||	=53||	=53||	=53||	=53||	=53||	=53||
*>B	*>B	*>B	*>B	*>B	*>B	*>B	*>B
*clefF4	*	*clefGv2	*	*clefGv2	*	*clefG2	*
*k[]	*	*k[]	*	*k[]	*	*k[]	*
*M2/1	*	*M2/1	*	*M2/1	*	*M2/1	*
*met(C|)	*	*met(C|)	*	*met(C|)	*	*met(C|)	*
!!section: Agnus Dei II
!!!OMD: Agnus Dei II
0r	.	0r	.	2.c\	A-	0r	.
.	.	.	.	4d\	.	.	.
.	.	.	.	2e\	.	.	.
.	.	.	.	[2f\	.	.	.
=54	=54	=54	=54	=54	=54	=54	=54
0r	.	0r	.	2f\]	.	0r	.
.	.	.	.	4e\	.	.	.
.	.	.	.	4d\	.	.	.
.	.	.	.	4e\	.	.	.
.	.	.	.	4f\	.	.	.
.	.	.	.	[2g\	.	.	.
=55	=55	=55	=55	=55	=55	=55	=55
0r	.	0r	.	2g\]	.	1r	.
.	.	.	.	2f#i\	.	.	.
.	.	.	.	[1g	-gnus	2.g/	A-
.	.	.	.	.	.	4a/	.
=56	=56	=56	=56	=56	=56	=56	=56
0r	.	0r	.	2g\]	.	2b\	.
.	.	.	.	2e\	.	1cc	.
.	.	.	.	1f	De-	.	.
.	.	.	.	.	.	4b\	.
.	.	.	.	.	.	4a/	.
=57	=57	=57	=57	=57	=57	=57	=57
0r	.	0r	.	1g	.	4b\	.
.	.	.	.	.	.	4cc\	.
.	.	.	.	.	.	1dd	.
.	.	.	.	1e	.	.	.
.	.	.	.	.	.	2cc#i\	.
=58	=58	=58	=58	=58	=58	=58	=58
0r	.	0r	.	2.d\	.	0dd	-gnus
.	.	.	.	4e\	.	.	.
.	.	.	.	2f\	.	.	.
.	.	.	.	[2g\	.	.	.
=59	=59	=59	=59	=59	=59	=59	=59
0r	.	0r	.	4g\]	.	1.ee	De-
.	.	.	.	4f\	.	.	.
.	.	.	.	4e\	.	.	.
.	.	.	.	4d\	.	.	.
.	.	.	.	1c	.	.	.
.	.	.	.	.	.	4dd\	.
.	.	.	.	.	.	4cc\	.
=60	=60	=60	=60	=60	=60	=60	=60
0r	.	0r	.	1g	.	2dd\	.
.	.	.	.	.	.	2ee\	.
.	.	.	.	[1a	.	[1ff	.
=61	=61	=61	=61	=61	=61	=61	=61
0r	.	0r	.	1a]	.	2ff\]	.
.	.	.	.	.	.	4ee\	.
.	.	.	.	.	.	4dd\	.
.	.	.	.	1g	.	2ee\	.
.	.	.	.	.	.	[2dd\	.
=62	=62	=62	=62	=62	=62	=62	=62
0r	.	0r	.	0f	.	2dd\]	.
.	.	.	.	.	.	4cc\	.
.	.	.	.	.	.	4b\	.
.	.	.	.	.	.	1a	.
=63	=63	=63	=63	=63	=63	=63	=63
0r	.	0r	.	2.e\	.	2.g/	.
.	.	.	.	4f\	.	4a/	.
.	.	.	.	4g\	.	4b\	.
.	.	.	.	4a\	.	4cc\	.
.	.	.	.	2g\	.	4dd\	.
.	.	.	.	.	.	4ee\	.
=64	=64	=64	=64	=64	=64	=64	=64
0r	.	0r	.	4f\	.	4dd\	.
.	.	.	.	4e\	.	4cc\	.
.	.	.	.	4d\	.	1cc	.
.	.	.	.	4c\	.	.	.
.	.	.	.	1d	.	.	.
.	.	.	.	.	.	2b\	.
=65	=65	=65	=65	=65	=65	=65	=65
0r	.	0r	.	1c	-i,	[0cc	-i,
.	.	.	.	2r	.	.	.
.	.	.	.	2c\	qui	.	.
=66	=66	=66	=66	=66	=66	=66	=66
0r	.	0r	.	1f	tol-	0cc]	.
.	.	.	.	1f	-lis	.	.
=67	=67	=67	=67	=67	=67	=67	=67
0r	.	0r	.	2.e\	pec-	1r	.
.	.	.	.	4d\	.	.	.
.	.	.	.	2e\	.	1cc	qui
.	.	.	.	[2f\	-ca-	.	.
=68	=68	=68	=68	=68	=68	=68	=68
0r	.	0r	.	4f\]	.	1ff	to-
.	.	.	.	4e\	.	.	.
.	.	.	.	4d\	.	.	.
.	.	.	.	4c\	.	.	.
.	.	.	.	1d	-ta	1ff	-lis
=69	=69	=69	=69	=69	=69	=69	=69
0r	.	0r	.	0a	mun-	2.ee\	pec-
.	.	.	.	.	.	4dd\	.
.	.	.	.	.	.	2ee\	.
.	.	.	.	.	.	[2ff\	-ca-
=70	=70	=70	=70	=70	=70	=70	=70
0r	.	0r	.	1a	.	4ff\]	.
.	.	.	.	.	.	4ee\	.
.	.	.	.	.	.	4dd\	.
.	.	.	.	.	.	4cc\	.
.	.	.	.	1g	.	2dd\	-ta
.	.	.	.	.	.	4cc\	.
.	.	.	.	.	.	4b\	.
=71	=71	=71	=71	=71	=71	=71	=71
0r	.	0r	.	2.f\	.	2.a/	mun-
.	.	.	.	4g\	.	4b\	.
.	.	.	.	2a\	.	4cc\	.
.	.	.	.	.	.	4dd\	.
.	.	.	.	4g\	.	[2ee\	.
.	.	.	.	4f\	.	.	.
=72	=72	=72	=72	=72	=72	=72	=72
0r	.	0r	.	2g\	.	2ee\]	.
.	.	.	.	2a\	.	4dd\	.
.	.	.	.	.	.	4cc\	.
.	.	.	.	2b-i\	.	2dd\	.
.	.	.	.	2a\	.	2ee\	.
=73	=73	=73	=73	=73	=73	=73	=73
0r	.	0r	.	4d\	.	2.ff\	.
.	.	.	.	4e\	.	.	.
.	.	.	.	4f\	.	.	.
.	.	.	.	4g\	.	4ee\	.
.	.	.	.	4a\	.	4cc\	.
.	.	.	.	4f\	.	4dd\	.
.	.	.	.	[2g\	.	[2ee\	.
=74	=74	=74	=74	=74	=74	=74	=74
0r	.	0r	.	4g\]	.	4ee\]	.
.	.	.	.	4f\	.	4dd\	.
.	.	.	.	4e\	.	1dd	.
.	.	.	.	4d\	.	.	.
.	.	.	.	1e	-di,	.	.
.	.	.	.	.	.	2cc#i\	.
=75	=75	=75	=75	=75	=75	=75	=75
0r	.	0r	.	2r	.	1dd	-di:
.	.	.	.	2.d\	[mun-	.	.
.	.	.	.	.	.	2r	.
.	.	.	.	4c\	.	.	.
.	.	.	.	4B\	.	[2dd\	mi-
.	.	.	.	4A/	.	.	.
=76	=76	=76	=76	=76	=76	=76	=76
0r	.	0r	.	2B\	.	2dd\]	.
.	.	.	.	2G/	.	2b\	-se-
.	.	.	.	1A	.	1cc	-re-
=77	=77	=77	=77	=77	=77	=77	=77
0r	.	0r	.	1G	-di:]	2b\	-re
.	.	.	.	.	.	2.dd\	no-
.	.	.	.	2r	.	.	.
.	.	.	.	.	.	4cc\	.
.	.	.	.	[2g\	mi-	[2b\	.
=78	=78	=78	=78	=78	=78	=78	=78
0r	.	0r	.	2g\]	.	2b\]	.
.	.	.	.	2e\	-se-	4a/	.
.	.	.	.	.	.	4g/	.
.	.	.	.	1f	-re-	1a	.
=79	=79	=79	=79	=79	=79	=79	=79
0r	.	0r	.	2e\	-re	1g	-bis,
.	.	.	.	2.g\	no-	.	.
.	.	.	.	.	.	2r	.
.	.	.	.	4f\	.	.	.
.	.	.	.	[2e\	.	[2gg\	mi-
=80	=80	=80	=80	=80	=80	=80	=80
0r	.	0r	.	2e\]	.	2gg\]	.
.	.	.	.	4d\	.	2ee\	-se-
.	.	.	.	4c\	.	.	.
.	.	.	.	1d	.	1ff	-re-
=81	=81	=81	=81	=81	=81	=81	=81
0r	.	0r	.	0c	-bis,	2ee\	-re
.	.	.	.	.	.	2.gg\	no-
.	.	.	.	.	.	4ff\	.
.	.	.	.	.	.	[2ee\	.
=82	=82	=82	=82	=82	=82	=82	=82
0r	.	0r	.	1r	.	2ee\]	.
.	.	.	.	.	.	4dd\	.
.	.	.	.	.	.	4cc\	.
.	.	.	.	1g	mi-	1dd	.
=83	=83	=83	=83	=83	=83	=83	=83
0r	.	0r	.	1a	-se-	2cc\	.
.	.	.	.	.	.	2.ff\	.
.	.	.	.	2f\	-re-	.	.
.	.	.	.	.	.	4ee\	.
.	.	.	.	[2g\	-re	4dd\	.
.	.	.	.	.	.	4cc\	.
=84	=84	=84	=84	=84	=84	=84	=84
0r	.	0r	.	4g\]	.	2dd\	.
.	.	.	.	4f\	.	.	.
.	.	.	.	4e\	.	1ee	.
.	.	.	.	4d\	.	.	.
.	.	.	.	2e\	.	.	.
.	.	.	.	2f\	.	4dd\	.
.	.	.	.	.	.	4cc\	.
=85	=85	=85	=85	=85	=85	=85	=85
0r	.	0r	.	1g	no-	2.b\	.
.	.	.	.	.	.	4cc\	.
.	.	.	.	2.G/	.	2dd\	.
.	.	.	.	.	.	[2g/	.
.	.	.	.	4A/	.	.	.
=86	=86	=86	=86	=86	=86	=86	=86
0r	.	0r	.	4B\	.	4g/]	.
.	.	.	.	4c\	.	4a/	.
.	.	.	.	4d\	.	4b\	.
.	.	.	.	4e\	.	4cc\	.
.	.	.	.	2f\	.	2dd\	.
.	.	.	.	[2g\	.	[2ee\	.
=87	=87	=87	=87	=87	=87	=87	=87
0r	.	0r	.	4g\]	.	4ee\]	.
.	.	.	.	4f\	.	4dd\	.
.	.	.	.	4e\	.	4cc\	.
.	.	.	.	4d\	.	4b\	.
.	.	.	.	4e\	.	4cc\	.
.	.	.	.	4f\	.	4dd\	.
.	.	.	.	4g\	.	4ee\	.
.	.	.	.	4e\	.	8dd\L	.
.	.	.	.	.	.	8ee\J	.
=88	=88	=88	=88	=88	=88	=88	=88
0r	.	0r	.	4f\	.	4dd\	.
.	.	.	.	4e\	.	4cc\	.
.	.	.	.	4d\	.	1cc	.
.	.	.	.	4c\	.	.	.
.	.	.	.	1d	.	.	.
.	.	.	.	.	.	2b\	.
=89	=89	=89	=89	=89	=89	=89	=89
0r	.	0r	.	0cl	-bis.	0ccl	-bis.
==	==	==	==	==	==	==	==
*-	*-	*-	*-	*-	*-	*-	*-
!!!RDF**kern: l=long note in original notation
!!!RDF**kern: i=editorial accidental
!!!ENC: Richard Freedman (CRIM)
!!!END: 2016/03/29/
!!!EED: Jesse Rodin
!!!EEV: 2016/03/30/
!!!ONB: Translated from MusicXML and edited on 2016/03/30/ by Craig Sapp
!!muse2ps: T^@{OPR}^u^@{ONM}{. }@{OTL}^C^@{COM}^i2I150v85,85,85,150Q16
